mobile/apps/auth/assets/custom-icons/icons/epic_games.svg

<svg xmlns="http://www.w3.org/2000/svg" fill="none" viewBox="0 0 500 500"><path fill="#fff" d="m191.633 323.503-6.557 16.51h12.996l-6.439-16.51Zm38.498-171.881v-48.197c0-7.683-3.53-11.231-10.894-11.231h-11.986v70.676h11.986c7.364 0 10.894-3.564 10.894-11.23v-.018ZM426.791 0H74.138C45.524 0 35 10.541 35 39.138V384.21l.42 9.027c.64 6.255.791 12.307 6.591 19.165 2.11 1.765 4.28 3.458 6.505 5.078l8.961 4.169 173.646 72.743c9.027 4.119 12.777 5.75 19.333 5.598h.05c6.557.135 10.306-1.479 19.335-5.598l173.645-72.743 8.961-4.169 6.505-5.077c5.8-6.893 5.934-12.945 6.591-19.165.293-3.001.433-6.014.42-9.029V39.155c0-28.614-10.558-39.138-39.138-39.138h-.033V0h-.001ZM272.447 66.441h29.168v191.715h-29.168V66.441Zm1.966 238.403h16.98v57.999h-16.004v-33.32l-14.829 22.695h-.337l-14.743-22.527v33.151h-15.752v-57.999h16.979l13.837 22.477 13.835-22.477h.034v.001ZM178.083 66.44h45.778c23.704 0 35.438 11.768 35.438 35.607v50.938c0 23.822-11.717 35.607-35.438 35.607h-16.61v69.582h-29.168V66.44Zm-79.501 0h64.875v26.561H127.75v54.216h34.346v26.562H127.75v57.798h36.262v26.562h-65.43V66.44Zm55.763 288.635c-6.136 5.044-14.676 8.944-25.183 8.944-18.073 0-31.572-12.439-31.572-30.008v-.168c0-16.896 13.247-30.177 31.235-30.177 10.205 0 17.401 3.143 23.536 8.457l-9.447 11.347c-4.153-3.48-8.289-5.464-14.005-5.464-8.372 0-14.828 7.027-14.828 15.921v.168c-.466 8.938 6.806 16.366 15.752 16.088 3.901 0 6.893-.84 9.281-2.403v-7.028h-11.431v-11.769h26.68v26.11l-.018-.018Zm29.672-50.635h15.5l24.679 58.419h-17.231l-4.236-10.373h-22.393l-4.154 10.373h-16.894l24.678-58.419h.052-.001Zm65.128 155.186-81.736-28.108h166.955l-85.218 28.109-.001-.001Zm99.978-96.75h-47.072v-57.999h46.652v13.667h-30.732v8.793h27.857v12.693h-27.857v9.195h31.169v13.668-.034l-.017.017Zm-32.06-138.677V100.398c0-23.822 11.717-35.607 35.438-35.607h14.172c23.704 0 35.169 11.517 35.169 35.338V139.3H373.23v-37.523c0-7.682-3.564-11.23-10.894-11.23h-4.91c-7.615 0-11.178 3.564-11.178 11.23V222.82c0 7.682 3.563 11.23 11.178 11.23h5.465c7.363 0 10.893-3.565 10.893-11.23v-43.256h28.614v44.634c0 23.822-11.718 35.624-35.439 35.624h-14.458c-23.704 0-35.438-11.768-35.438-35.623Zm86.831 120.772c0 11.853-9.364 18.88-23.452 18.88-10.289 0-20.056-3.228-27.185-9.616l8.944-10.709a29.76 29.76 0 0 0 18.795 6.944c4.321 0 6.641-1.48 6.641-3.985v-.168c0-2.404-1.9-3.732-9.784-5.548-12.357-2.824-21.889-6.304-21.889-18.241v-.168c0-10.793 8.541-18.576 22.477-18.576 9.868 0 17.568 2.656 23.872 7.699l-8.036 11.349c-5.295-3.733-11.095-5.717-16.256-5.717-3.901 0-5.8 1.648-5.8 3.733v.167c0 2.656 1.983 3.817 10.036 5.633 13.331 2.908 21.637 7.195 21.637 18.071v.252Z" style="mix-blend-mode:difference"/></svg>

<svg width="500" height="500" viewBox="0 0 500 500" fill="none" xmlns="http://www.w3.org/2000/svg">
<g style="mix-blend-mode:difference">
<path d="M191.633 323.503L185.076 340.013H198.072L191.633 323.503ZM230.131 151.622V103.425C230.131 95.742 226.601 92.194 219.237 92.194H207.251V162.87H219.237C226.601 162.87 230.131 159.306 230.131 151.64V151.622ZM426.791 0H74.138C45.524 0 35 10.541 35 39.138V384.21L35.42 393.237C36.06 399.492 36.211 405.544 42.011 412.402C44.121 414.167 46.291 415.86 48.516 417.48L57.477 421.649L231.123 494.392C240.15 498.511 243.9 500.142 250.456 499.99H250.506C257.063 500.125 260.812 498.511 269.841 494.392L443.486 421.649L452.447 417.48L458.952 412.403C464.752 405.51 464.886 399.458 465.543 393.238C465.836 390.237 465.976 387.224 465.963 384.209V39.155C465.963 10.541 455.405 0.017 426.825 0.017H426.792V0H426.791ZM272.447 66.441H301.615V258.156H272.447V66.441ZM274.413 304.844H291.393V362.843H275.389V329.523L260.56 352.218H260.223L245.48 329.691V362.842H229.728V304.843H246.707L260.544 327.32L274.379 304.843H274.413V304.844ZM178.083 66.44H223.861C247.565 66.44 259.299 78.208 259.299 102.047V152.985C259.299 176.807 247.582 188.592 223.861 188.592H207.251V258.174H178.083V66.44ZM98.582 66.44H163.457V93.001H127.75V147.217H162.096V173.779H127.75V231.577H164.012V258.139H98.582V66.44ZM154.345 355.075C148.209 360.119 139.669 364.019 129.162 364.019C111.089 364.019 97.59 351.58 97.59 334.011V333.843C97.59 316.947 110.837 303.666 128.825 303.666C139.03 303.666 146.226 306.809 152.361 312.123L142.914 323.47C138.761 319.99 134.625 318.006 128.909 318.006C120.537 318.006 114.081 325.033 114.081 333.927V334.095C113.615 343.033 120.887 350.461 129.833 350.183C133.734 350.183 136.726 349.343 139.114 347.78V340.752H127.683V328.983H154.363V355.093L154.345 355.075ZM184.017 304.44H199.517L224.196 362.859H206.965L202.729 352.486H180.336L176.182 362.859H159.288L183.966 304.44H184.018H184.017ZM249.145 459.626L167.409 431.518H334.364L249.146 459.627L249.145 459.626ZM349.123 362.876H302.051V304.877H348.703V318.544H317.971V327.337H345.828V340.03H317.971V349.225H349.14V362.893V362.859L349.123 362.876ZM317.063 224.199V100.398C317.063 76.576 328.78 64.791 352.501 64.791H366.673C390.377 64.791 401.842 76.308 401.842 100.129V139.3H373.23V101.777C373.23 94.095 369.666 90.547 362.336 90.547H357.426C349.811 90.547 346.248 94.111 346.248 101.777V222.82C346.248 230.502 349.811 234.05 357.426 234.05H362.891C370.254 234.05 373.784 230.485 373.784 222.82V179.564H402.398V224.198C402.398 248.02 390.68 259.822 366.959 259.822H352.501C328.797 259.822 317.063 248.054 317.063 224.199ZM403.894 344.971C403.894 356.824 394.53 363.851 380.442 363.851C370.153 363.851 360.386 360.623 353.257 354.235L362.201 343.526C367.475 347.944 374.117 350.397 380.996 350.47C385.317 350.47 387.637 348.99 387.637 346.485V346.317C387.637 343.913 385.737 342.585 377.853 340.769C365.496 337.945 355.964 334.465 355.964 322.528V322.36C355.964 311.567 364.505 303.784 378.441 303.784C388.309 303.784 396.009 306.44 402.313 311.483L394.277 322.832C388.982 319.099 383.182 317.115 378.021 317.115C374.12 317.115 372.221 318.763 372.221 320.848V321.015C372.221 323.671 374.204 324.832 382.257 326.648C395.588 329.556 403.894 333.843 403.894 344.719V344.971Z" fill="white"/>
</g>
</svg>
